FINK
CUT[UNTER MEINES VATERS SEINEM FENSTER]
REG[Europa, Mitteleuropa, Deutschland, Schlesien]
KEY[F0200  16  E 3/4]
MEL[3_.4  5_3_5_3_5_3_  5_+1_3__
    6_.5  5_4_4_4_2_4_  6_.55__
    3_.4  5_3_5_3_5_3_  5_+1_3__
    6_.5  5_4_4_4_2_4_  6_.55_
    1_3_4_  5_4_4_4_2_4_  6_5_5_
    1_3_4_  5_4_4_4_2_4_  6_5_5_5_
    3_.4  5_3_5_3_5_3_  5_+1_3__
    6_.5  5_4_4_2_-7_2_  2__1__ //] >>
FCT[Scherz - Lied]
